dist/img/svg/ic_cross.svg

<svg width="26" height="26" viewBox="0 0 26 26" fill="none" xmlns="http://www.w3.org/2000/svg">
<rect x="0.5" y="0.5" width="25" height="25" rx="12.5" stroke="#E2243C"/>
<path d="M13.5469 12.4531V6H12.4531V12.4531H6V13.5469H12.4531V20H13.5469V13.5469H20V12.4531H13.5469Z" fill="#E2243C"/>
</svg>

<svg width="26" height="26" viewBox="0 0 26 26" fill="none" xmlns="http://www.w3.org/2000/svg"><rect x=".5" y=".5" width="25" height="25" rx="12.5" stroke="#E2243C"/><path d="M13.547 12.453V6h-1.094v6.453H6v1.094h6.453V20h1.094v-6.453H20v-1.094h-6.453z" fill="#E2243C"/></svg>
